X: 34974
T: Roddy McDonald's Fancy
R: reel
M: 4/4
K: Amajor
af|:ecBe cA~AA|BccB ceaf|ecBe cAAB|cffe fgaf:|
e3f a3f|ecBc ecaf|ecea afec|cffe fgaf|
ecef a3f|ecBc ecaf|ecBe cAAB|cffe f2z2|
|:B3c A3B|c2cB ceaf|ecBe cAAB|1 cffe f2ef:|2 cffe f2ef||
a2ef aefa|efae faef|a2ef aefB|cffe f2fg|
a2ba f3f|ef2e c2af|ecBe cAAB|cffe fgaf|

